libs/ui/packages/crypto-icons/src/svg/TKS.svg

<svg width="24" height="24" viewBox="0 0 24 24" fill="none">
<path fill-rule="evenodd" clip-rule="evenodd" d="M13.3275 10.6875C13.4474 10.6803 13.5676 10.6803 13.6875 10.6875C14.7975 10.7625 15.3075 12.27 16.0125 12.1875C15.3518 12.7276 14.5854 13.1236 13.7625 13.35C13.4204 13.3999 13.0716 13.3301 12.775 13.1525C12.4785 12.9748 12.2524 12.7002 12.135 12.375V15.375L16.5 12.885V9L13.3275 10.6875ZM11.16 10.68C10.9945 10.5429 10.8596 10.3726 10.764 10.1801C10.6684 9.9876 10.6143 9.77721 10.605 9.5625V9.5025C10.605 8.6325 12.0075 7.2525 12.0525 7.2525C12.0975 7.2975 13.5 8.64 13.5 9.5025V9.57C13.4866 9.95518 13.3255 10.3204 13.05 10.59L16.5 8.7375L12 6.5325L7.5 8.715L11.16 10.68ZM11.895 12.405C11.779 12.7316 11.5535 13.0079 11.2568 13.187C10.9601 13.3661 10.6105 13.437 10.2675 13.3875C9.44465 13.1611 8.67824 12.7651 8.0175 12.225C8.7225 12.2775 9.225 10.7625 10.3425 10.725C10.4624 10.7178 10.5826 10.7178 10.7025 10.725L7.5 9V12.8925L11.9025 15.435L11.895 12.405Z" fill="#895AF8"/>
<path d="M12 3C7.02975 3 3 7.02975 3 12C3 16.9703 7.02975 21 12 21C16.9703 21 21 16.9703 21 12C21 9.61305 20.0518 7.32387 18.364 5.63604C16.6761 3.94821 14.3869 3 12 3ZM6.975 8.3925L12 5.955L17.0325 8.3925V13.185L12 16.0875L6.975 13.185V8.3925ZM17.0475 15.1425L12.0375 18.0375L6.9675 15.1125V14.835L12.0375 17.76L17.0475 14.865V15.1425ZM17.0475 14.58L12.0375 17.475L6.9675 14.55V14.25L12.0375 17.1825L17.0475 14.2875V14.58ZM17.0475 14.0175L12.0375 16.9125L6.9675 13.9875V13.71L12.0375 16.6425L17.0475 13.7475V14.0175Z" fill="#895AF8"/>
</svg>

<svg width="24" height="24" viewBox="0 0 24 24" fill="none"><path fill="#895af8" fill-rule="evenodd" d="M13.328 10.688q.18-.012.36 0c1.11.074 1.62 1.582 2.324 1.5a6.1 6.1 0 0 1-2.25 1.162 1.5 1.5 0 0 1-1.627-.975v3l4.365-2.49V9zm-2.168-.008a1.54 1.54 0 0 1-.555-1.117v-.06c0-.87 1.402-2.25 1.447-2.25.046.045 1.448 1.387 1.448 2.25v.067a1.5 1.5 0 0 1-.45 1.02l3.45-1.852L12 6.533 7.5 8.715zm.735 1.725a1.5 1.5 0 0 1-1.627.982 6.1 6.1 0 0 1-2.25-1.162c.704.053 1.207-1.463 2.324-1.5q.18-.01.36 0L7.5 9v3.893l4.403 2.542z" clip-rule="evenodd"/><path fill="#895af8" d="M12 3a9 9 0 1 0 0 18 9 9 0 0 0 0-18M6.975 8.393 12 5.954l5.032 2.438v4.792L12 16.087l-5.025-2.902zm10.073 6.75-5.01 2.895-5.07-2.925v-.278l5.07 2.925 5.01-2.895zm0-.563-5.01 2.895-5.07-2.925v-.3l5.07 2.933 5.01-2.895zm0-.562-5.01 2.895-5.07-2.925v-.278l5.07 2.932 5.01-2.894z"/></svg>
